src/assets/icons/navlogo.svg

<svg width="117" height="36" viewBox="0 0 117 36" fill="none" xmlns="http://www.w3.org/2000/svg">
<path d="M50.4556 10.771H53.2379V24.0004H50.4556V18.5621H44.7891V24.0004H42.0068V10.771H44.7891V16.1726H50.4556V10.771Z" fill="white"/>
<path d="M60.7499 24.1835C59.736 24.1835 58.8364 23.9912 58.0512 23.6067C57.2659 23.2222 56.6477 22.6576 56.1963 21.913C55.7512 21.1683 55.5286 20.2925 55.5286 19.2854C55.5286 17.7778 56.0108 16.5876 56.9754 15.7148C57.9399 14.842 59.1981 14.4056 60.7499 14.4056C62.308 14.4056 63.5693 14.842 64.5338 15.7148C65.4983 16.5876 65.9806 17.7778 65.9806 19.2854C65.9806 20.7991 65.4983 21.9954 64.5338 22.8743C63.5693 23.7471 62.308 24.1835 60.7499 24.1835ZM60.7221 22.0869C61.5012 22.0869 62.1287 21.8306 62.6048 21.3179C63.087 20.8052 63.3282 20.1277 63.3282 19.2854C63.3282 18.4431 63.087 17.7656 62.6048 17.2529C62.1287 16.7402 61.5012 16.4839 60.7221 16.4839C59.974 16.4839 59.3619 16.7433 58.8858 17.2621C58.4159 17.7748 58.181 18.4492 58.181 19.2854C58.181 20.1216 58.4159 20.7991 58.8858 21.3179C59.3619 21.8306 59.974 22.0869 60.7221 22.0869Z" fill="white"/>
<path d="M74.2902 14.5887H76.9612V24.0004H74.4293L74.3644 22.8651C73.6596 23.744 72.6487 24.1835 71.3318 24.1835C70.188 24.1835 69.31 23.9027 68.6979 23.3412C68.0858 22.7736 67.7798 21.9679 67.7798 20.9242V14.5887H70.46V20.3566C70.46 20.9425 70.6177 21.3728 70.933 21.6475C71.2545 21.9221 71.6687 22.0594 72.1757 22.0594C72.794 22.0594 73.2979 21.8824 73.6874 21.5284C74.0831 21.1683 74.2841 20.5854 74.2902 19.7798V14.5887Z" fill="white"/>
<path d="M86.6898 14.5887L82.4979 21.9679H86.56V24.0004H78.7047L82.8781 16.6212H79.0293V14.5887H86.6898Z" fill="white"/>
<path d="M89.8894 13.1788C89.4628 13.1788 89.098 13.0323 88.795 12.7394C88.4921 12.4403 88.3406 12.0802 88.3406 11.6591C88.3406 11.244 88.4921 10.89 88.795 10.597C89.1042 10.298 89.469 10.1484 89.8894 10.1484C90.3036 10.1484 90.6622 10.298 90.9652 10.597C91.2682 10.89 91.4196 11.244 91.4196 11.6591C91.4196 12.0802 91.2682 12.4403 90.9652 12.7394C90.6622 13.0323 90.3036 13.1788 89.8894 13.1788ZM88.5261 24.0004V14.5887H91.2156V24.0004H88.5261Z" fill="white"/>
<path d="M99.6087 14.4056C100.753 14.4056 101.631 14.6895 102.243 15.2571C102.855 15.8186 103.161 16.6212 103.161 17.6649V24.0004H100.481V18.2325C100.481 17.6405 100.32 17.2072 99.9982 16.9325C99.6829 16.6578 99.2749 16.5205 98.7741 16.5205C98.4835 16.5205 98.2176 16.5602 97.9765 16.6395C97.7353 16.7189 97.5128 16.844 97.3087 17.0149C97.1047 17.1797 96.944 17.4147 96.8265 17.7198C96.7152 18.025 96.6565 18.3882 96.6503 18.8093V24.0004H93.9793V14.5887H96.6503V15.6324C97.3551 14.8146 98.3413 14.4056 99.6087 14.4056Z" fill="white"/>
<path d="M112.324 14.5887H114.865V23.2954C114.865 24.1926 114.744 24.9739 114.503 25.6392C114.268 26.3044 113.925 26.8385 113.474 27.2413C113.022 27.6503 112.494 27.9524 111.888 28.1477C111.282 28.343 110.589 28.4407 109.81 28.4407C107.294 28.4407 105.655 27.4672 104.895 25.5201L107.112 24.5863C107.384 25.2028 107.727 25.6575 108.141 25.9504C108.555 26.2434 109.078 26.3899 109.708 26.3899C111.359 26.3899 112.185 25.4225 112.185 23.4877V22.389C111.9 22.7736 111.498 23.0848 110.979 23.3229C110.466 23.5548 109.903 23.6708 109.291 23.6708C108.704 23.6708 108.144 23.5609 107.612 23.3412C107.087 23.1154 106.626 22.8041 106.23 22.4073C105.835 22.0045 105.519 21.5101 105.285 20.9242C105.056 20.3383 104.941 19.7035 104.941 19.0199C104.941 18.3302 105.056 17.6954 105.285 17.1156C105.519 16.5297 105.835 16.0414 106.23 15.6508C106.632 15.2601 107.096 14.955 107.622 14.7352C108.153 14.5155 108.716 14.4056 109.31 14.4056C109.965 14.4056 110.552 14.5369 111.072 14.7993C111.597 15.0557 111.993 15.4005 112.259 15.8339L112.324 14.5887ZM108.224 20.8143C108.701 21.2965 109.285 21.5376 109.977 21.5376C110.67 21.5376 111.254 21.2935 111.73 20.8052C112.206 20.3169 112.444 19.7218 112.444 19.0199C112.444 18.3119 112.206 17.7137 111.73 17.2255C111.26 16.7372 110.676 16.493 109.977 16.493C109.272 16.493 108.685 16.7341 108.215 17.2163C107.751 17.6924 107.52 18.2936 107.52 19.0199C107.52 19.734 107.755 20.3322 108.224 20.8143Z" fill="white"/>
<path d="M7.32205 17.7038V10.4231L15.1946 5.96333C17.8217 7.44993 20.443 8.93653 23.0672 10.4231V21.6982H8.94887H1.63392C1.36661 21.1001 1.09356 20.5106 0.872243 19.8984C-0.036018 17.385 -0.234341 14.6827 0.274401 12.0846C0.826255 9.25247 2.22026 6.55289 4.45068 4.36671C7.41977 1.45557 11.3086 0 15.1946 0C19.0863 0 22.9752 1.45557 25.9385 4.36671C28.9047 7.28068 30.3879 11.0973 30.3879 14.9111C30.3879 18.7278 28.9047 22.5473 25.9385 25.4556L15.1946 36L4.45068 25.4584C3.99655 25.0127 3.56541 24.5331 3.17164 24.0339H6.35918L15.1946 32.708L24.2628 23.8082C26.7634 21.354 28.0166 18.1298 28.0166 14.9111C28.0166 11.6925 26.7634 8.47109 24.2628 6.0141C21.7594 3.5543 18.4741 2.32722 15.1946 2.32722C11.9151 2.32722 8.6327 3.55712 6.12924 6.01128C4.24373 7.86178 3.07104 10.1354 2.60541 12.5162C2.15703 14.7955 2.35823 17.1678 3.20038 19.3625H20.693V11.7602C18.8564 10.7193 17.0255 9.68124 15.1946 8.64316L9.69905 11.7602V17.7094H7.32205V17.7038Z" fill="white"/>
</svg>

<svg xmlns="http://www.w3.org/2000/svg" width="117" height="36" fill="none"><path fill="#fff" d="M50.456 10.771h2.782v13.23h-2.782v-5.439h-5.667V24h-2.782V10.771h2.782v5.402h5.667V10.77ZM60.75 24.183c-1.014 0-1.914-.192-2.699-.576a4.375 4.375 0 0 1-1.855-1.694c-.445-.745-.667-1.62-.667-2.628 0-1.507.482-2.697 1.446-3.57.965-.873 2.223-1.31 3.775-1.31 1.558 0 2.82.437 3.784 1.31s1.447 2.063 1.447 3.57c0 1.514-.483 2.71-1.447 3.59-.965.872-2.226 1.308-3.784 1.308Zm-.028-2.096c.78 0 1.407-.256 1.883-.77.482-.512.723-1.19.723-2.032 0-.842-.241-1.52-.723-2.032-.476-.513-1.104-.77-1.883-.77-.748 0-1.36.26-1.836.78-.47.512-.705 1.186-.705 2.022 0 .837.235 1.514.705 2.033.476.513 1.088.769 1.836.769ZM74.29 14.589h2.671V24H74.43l-.065-1.135c-.704.879-1.715 1.319-3.032 1.319-1.144 0-2.022-.281-2.634-.843-.612-.567-.918-1.373-.918-2.417V14.59h2.68v5.768c0 .585.158 1.016.473 1.29.321.275.736.412 1.243.412.618 0 1.122-.177 1.511-.53.396-.36.597-.944.603-1.75v-5.19ZM86.69 14.589l-4.192 7.379h4.062V24h-7.855l4.173-7.379H79.03V14.59h7.66ZM89.89 13.179c-.427 0-.792-.147-1.095-.44-.303-.299-.454-.659-.454-1.08 0-.415.151-.769.454-1.062.31-.299.674-.449 1.094-.449.415 0 .773.15 1.076.449.303.293.455.647.455 1.062 0 .421-.152.781-.455 1.08-.303.293-.661.44-1.076.44ZM88.525 24V14.59h2.69V24h-2.69ZM99.609 14.406c1.144 0 2.022.284 2.634.851.612.562.918 1.364.918 2.408V24h-2.68v-5.767c0-.593-.161-1.026-.483-1.3-.315-.275-.723-.413-1.224-.413-.29 0-.556.04-.797.12-.242.079-.464.204-.668.375-.204.165-.365.4-.483.705a3.33 3.33 0 0 0-.176 1.09V24h-2.67V14.59h2.67v1.043c.705-.817 1.691-1.226 2.959-1.226ZM112.324 14.589h2.541v8.706c0 .898-.121 1.679-.362 2.344-.235.665-.578 1.2-1.029 1.602-.452.41-.98.711-1.586.907-.606.195-1.299.293-2.078.293-2.516 0-4.155-.974-4.915-2.92l2.217-.935c.272.617.615 1.072 1.029 1.364.414.293.937.44 1.567.44 1.651 0 2.477-.968 2.477-2.902v-1.099c-.285.385-.687.696-1.206.934a4.051 4.051 0 0 1-1.688.348c-.587 0-1.147-.11-1.679-.33a4.375 4.375 0 0 1-1.382-.934 4.443 4.443 0 0 1-.945-1.483 5.186 5.186 0 0 1-.344-1.904c0-.69.115-1.325.344-1.904a4.24 4.24 0 0 1 .945-1.465 4.373 4.373 0 0 1 3.08-1.245c.655 0 1.242.13 1.762.393.525.257.921.601 1.187 1.035l.065-1.245Zm-4.1 6.225a2.37 2.37 0 0 0 1.753.724c.693 0 1.277-.244 1.753-.733.476-.488.714-1.083.714-1.785 0-.708-.238-1.306-.714-1.794-.47-.489-1.054-.733-1.753-.733-.705 0-1.292.241-1.762.723-.464.476-.695 1.078-.695 1.804 0 .714.235 1.312.704 1.794ZM7.322 17.704v-7.28l7.873-4.46c2.627 1.486 5.248 2.973 7.872 4.46v11.274H1.634c-.267-.598-.54-1.187-.762-1.8A14.72 14.72 0 0 1 4.45 4.366C7.42 1.457 11.31 0 15.196 0c3.891 0 7.78 1.456 10.744 4.367 2.966 2.914 4.449 6.73 4.449 10.544 0 3.817-1.483 7.636-4.45 10.545L15.196 36 4.45 25.458a15.162 15.162 0 0 1-1.28-1.424H6.36l8.836 8.674 9.068-8.9a12.433 12.433 0 0 0 3.754-8.897c0-3.218-1.254-6.44-3.754-8.897-2.504-2.46-5.789-3.687-9.068-3.687-3.28 0-6.562 1.23-9.066 3.684a12.43 12.43 0 0 0-3.524 6.505 12.417 12.417 0 0 0 .595 6.847h17.493V11.76c-1.837-1.04-3.668-2.079-5.498-3.117L9.699 11.76v5.95H7.322v-.006Z"/></svg>
